!!!OTL: Die Mordeltern Es waren einst zwei Bauernsoehn',
!!!ARE: Europa, Mitteleuropa, Schweiz
!!!YOR: 4, S. 310
!!    1910 gedruckt in Basel
!!!SCT: Q0085c
!!!YEM: Copyright 1995, estate of Helmut Schaffrath.
**kern
*ICvox
*Ivox
!! Mixed meters:  3/4; 2/4
*M2/4
*k[f#]
*G:
{8g
8f#
8g
=1
4a
4a
8b
8cc
=2
4dd
8r}
{8g
8f#
8g
=3
4a
4a
8b
8cc
=4
4dd
8r}
{8g
8g
8g
=5
4ee
4ee
8dd
8b
=6
8gg}
{8dd
8b
8g
=7
*M3/4
8a
8dd
4dd
8cc
8f#
=8
4g
8r}
{8g
8g
8g
=9
4ee
4ee
8dd
8b
=10
*M2/4
8gg}
{8dd
8b
8g
=11
*M3/4
8a
8dd
4dd
8cc
8f#
=12
4g
8r}
==
!!!AGN: Ballade, Habgier, Mord, Reue, Selbstmord
!!!ONB: ESAC (Essen Associative Code) Database: BALLADE
!!!AMT: irregular
!!!AIN: vox
!!!EED: Helmut Schaffrath
!!!EEV: 1.0
*-
